X:1
T:Largo
T:Largo
T:Nicolas Chédeville
C:Nicolas Chédeville
%%score { 1 | 2 | 3 | 4 }
L:1/8
Q:1/4=92
M:3/4
K:F
V:1 treble nm="Klavier" snm="Klav."
V:2 treble 
V:3 bass 
V:4 bass 
V:1
"^getragen und klangvoll"!mp!!<(! (A3 B A2)!<)! | (f4 e2) | (d4!>(! ^c2)!>)! | !breath!d2 (AG A2) | %4
 B2 (GF G2) | (A2 G2 F2) | !breath!E6 | A4 F2 |!<(! (c2 d2 e2!<)! | f2) (c2 d2) | (c2 B2 A2) | %11
!>(! (G4 F2)!>)! | F2 z2!p! A2 | (B4 A2) |!>(! (G4 ^F2)!>)! | G2 z2!mp! =B2 | (c4 =B2) | %17
!>(! (A4 ^G2)!>)! |!<(! A3 c d2!<)! |!mf! (e3 d c2) |!>(! (=B4 A2)!>)! | A2 z2 z2 | z6 | z6 | %24
 z2!mf! A2 B2 | (B2 G2) A2 | (A2 F2) G2 | GA GF GE | FG FE DE | (F2 E2 D2) |!>(! A4 z2!>)! | %31
!p! (B2 A2 G2) | (G2 F2 E2) |!<(! (CD E2)!<)! z2 | z6 | z6 | z2!mf! A2 B2 | (A2 G2 F2) | %38
!>(! (E4 D2)!>)! |!p! !fermata!D6 |] %40
V:2
!mp!!<(! (F3 G F2)!<)! | (A4 G2) | (F3 D!>(! E2)!>)! | !breath!F2 (FE F2) | G2 (D2 E2) | %5
 (F2 E2 D2) | ^C2 (CD !breath!E2) | (C2 F2) C2 |!<(! G4 G2!<)! | F2 (A2 G2) | (A2 G2 F2) | %11
!>(! (F2 D2 E2)!>)! | F2 z2 z2 | z4!p! _E2 |!>(! D4 D2!>)! | D2 z2 z2 | z2 z2!mp! F2 | %17
!>(! E4 E2!>)! |!<(! E2 (A2 G2)!<)! |!mf! G2 (E2 F2) |!>(! (A2 ^F2 ^G2)!>)! | A2 z2 z2 | %22
 z4!mf! ^C2 | (D2 A,2) A,2 | A,4 z2 | (G2 E2) z2 | (F2 D2) z2 | (E2 ^C2) C2 | D2 D2 z2 | %29
 (D2 A,2 D2) |!>(! ^C2 (E2 D2)!>)! |!p! (G2 F2 E2) | z6 |!<(! !breath!E4!<)!!mf! G2 | (F2 D2) F2 | %35
 (E3 D ^C2) | !breath!D2 F2 D2 | (F4 D2) |!>(! (D2 =B,2 ^C2)!>)! |!p! !fermata!D6 |] %40
V:3
!mp!!<(! D4 A,2!<)! | (D2 A,2) B,2 | (A,3 B,!>(! A,2)!>)! | !breath!A,2 D2 D2 | D2 (B,2 C2) | %5
 C4 B,2 | E,2 (A,=B, !breath!^C2) | (A,2 C2) A,2 |!<(! G,2 C2 C2!<)! | A,2 F2 F2 | F4 D2 | %11
!>(! G,4 C2!>)! | A,2 z2 z2 | z4!p! A,2 |!>(! (B,2 G,2 A,2)!>)! | B,2 z2 z2 | z4!mp! =B,2 | %17
!>(! (C2 A,2 =B,2)!>)! |!<(! C2 (E2 D2)!<)! |!mf! (C3 =B, A,2) |!>(! (E4 D2)!>)! | C2 z2!mf! E2 | %22
 (F4 E2) | (D4 ^C2) | !breath!D4 D2 | C4 C2 | D4 =B,2 | A,4 A,2 | A,4 F,2 | A,2 E,2 B,2 | %30
!>(! E,4 z2!>)! |!p! D4 B,2 | (D2 C2 B,2) |!<(! (A,2 !breath!^C2)!<)!!mf! C2 | (A,2 F,2) A,2 | %35
 (^C2 A,2) E,2 | !breath!A,2 D2 B,2 | (D2 A,2 B,2) |!>(! (A,4 G,2)!>)! |!p! !fermata!F,6 |] %40
V:4
!mp!!<(! D,4 D,2!<)! | D,4 G,,2 | A,,4!>(! A,,2!>)! | !breath!D,4 D,2 | G,4 C,2 | F,2 (F,,2 G,,2) | %6
 !breath!A,,2 (A,2 G,2 | F,4) F,2 |!<(! E,4 E,2!<)! | D,2 (A,,2 B,,2) | A,,4 B,,2 | %11
!>(! C,4 C,2!>)! | F,2 z2 z2 | z4!p! C,2 |!>(! D,4 D,2!>)! | G,,2 z2 z2 | z4!mp! D,2 | %17
!>(! E,4 E,2!>)! |!<(! A,,4 =B,,2!<)! |!mf! C,4 D,2 |!>(! E,4 E,2!>)! | A,,2 z2 z2 | z4!mf! A,,2 | %23
 (F,4 E,2) | !breath!F,4 G,2 | E,4 F,2 | =B,,4 E,2 | ^C,4 A,,2 | D,4 D,2 | (D,2 C,2 B,,2) | %30
!>(! (A,,2 G,,2 !breath!F,,2)!>)! |!p! G,,4 G,2 | (B,2 A,2 G,2) |!<(! !breath!A,4!<)!!mf! A,,2 | %34
 D,4 D,2 | A,,4 A,,2 | F,,4 G,,2 | F,,4 G,,2 |!>(! A,,4 A,,2!>)! |!p! !fermata!D,6 |] %40

